img/svg/at24-1.svg

<svg width="23" height="25" viewBox="0 0 23 25" fill="none" xmlns="http://www.w3.org/2000/svg">
<path d="M10.4062 23.8008C8.625 23.0977 6.98438 21.9258 5.48438 20.3321C3.79688 18.6445 2.53125 16.6289 1.59375 14.2852C0.51562 11.7071 0 8.9414 0 5.98828C0 5.51953 0.09375 5.09766 0.375 4.72266C0.60938 4.34766 0.9375 4.11328 1.40625 3.92578L10.4062 0.175781C10.9688 -0.0585938 11.5312 -0.0585938 12.1406 0.175781L21.0938 3.92578C21.5156 4.11328 21.8438 4.34766 22.125 4.72266C22.3594 5.09766 22.5 5.51953 22.5 5.98828C22.5 9.22266 21.8906 12.1758 20.7188 14.8477C19.6875 17.0977 18.2812 19.0664 16.5938 20.7539C15.1406 22.1602 13.6406 23.1914 12.0938 23.8008C11.5312 24.0821 10.9688 24.0821 10.4062 23.8008ZM11.25 2.23828L2.25 5.98828C2.25 8.51953 2.67188 10.9102 3.5625 13.1602C4.35938 15.2227 5.48438 17.0508 6.89062 18.5508C8.20312 20.0508 9.6562 21.0821 11.25 21.7383C12.75 21.1289 14.2031 20.0977 15.5156 18.6445C16.9219 17.1445 18.0469 15.3633 18.8906 13.3008C19.7812 11.0508 20.25 8.61328 20.25 5.98828L11.25 2.23828Z" fill="#FFD500"/>
</svg>

<svg width="23" height="25" viewBox="0 0 23 25" fill="none" xmlns="http://www.w3.org/2000/svg"><path d="M10.406 23.8c-1.781-.702-3.422-1.874-4.922-3.468-1.687-1.688-2.953-3.703-3.89-6.047C.516 11.707 0 8.941 0 5.988c0-.468.094-.89.375-1.265.234-.375.563-.61 1.031-.797l9-3.75c.563-.235 1.125-.235 1.735 0l8.953 3.75c.422.187.75.422 1.031.797.234.375.375.797.375 1.265 0 3.235-.61 6.188-1.781 8.86a20.276 20.276 0 01-4.125 5.906c-1.453 1.406-2.953 2.437-4.5 3.047a1.793 1.793 0 01-1.688 0zm.844-21.562l-9 3.75c0 2.532.422 4.922 1.313 7.172.796 2.063 1.921 3.89 3.328 5.39 1.312 1.5 2.765 2.532 4.359 3.188 1.5-.61 2.953-1.64 4.266-3.093 1.406-1.5 2.53-3.282 3.375-5.344.89-2.25 1.359-4.688 1.359-7.313l-9-3.75z" fill="#FFD500"/></svg>
